src/assets/desktop/gorilla.svg

<svg width="43" height="28" viewBox="0 0 43 28" fill="none" xmlns="http://www.w3.org/2000/svg">
<path d="M6.32097 19.7266H4.10623L4.09613 17.5705H2.05312V23.8993L2.23999 25.6939H4.25775L4.26785 23.2238H3.30315V21.277H5.79821L6.48259 21.7132L6.62401 27.9024L6.04065 27.9498L4.87394 27.9223L4.59109 27.2942L3.34358 27.9896L1.20459 27.9597L0.0883989 26.7533L0 17.411L0.459612 16.1796L1.41421 15.4717L5.29062 15.4443L6.13915 16.4937L6.39672 18.2959C6.39672 18.2959 6.31592 19.9235 6.31592 19.7266H6.32097Z" fill="#090C21"/>
<path d="M13.1824 16.4688L12.3008 15.3945H8.90182L7.86891 16.3691L7.528 16.8452L7.38658 18.0765L7.22496 21.0153V23.9741L7.34618 26.0205L7.80832 26.6361L8.4725 27.3914C8.4725 27.3914 9.13666 28.1666 10.9676 27.9672C12.0534 27.8476 12.758 27.2119 12.758 27.2119L13.5232 25.7413L13.6645 21.611V17.9967L13.1824 16.4663V16.4688ZM11.4322 24.672L11.3741 25.8759L9.56849 25.9283L9.38163 25.2079V23.2612L9.44222 19.8637L9.49527 17.5581L11.561 17.5406L11.4347 24.6695L11.4322 24.672Z" fill="#090C21"/>
<path d="M21.031 27.2144V23.5403L20.67 22.4286L20.0464 21.8927V21.6335L20.9327 20.3199L20.7837 16.4812L19.3896 15.4219L16.1824 15.4343L14.8136 15.5141V18.1563L14.6318 18.3756L14.6723 27.9099H17.0866V25.9432L17.1674 24.7118L17.1269 23.0443H17.9528L18.3138 23.3035L18.4755 23.8993V27.0773L18.6977 27.8924L21.16 27.8725L21.0337 27.2169L21.031 27.2144ZM18.584 19.4873L18.4527 20.4395L18.0586 20.7959H16.8061V18.1139L16.8365 17.2789L18.5083 17.2988L18.584 19.4848V19.4873Z" fill="#090C21"/>
<path d="M22.4741 15.4492L22.3932 16.6931L22.1786 16.8252V18.6797L22.2315 22.7576V26.2273L22.2844 26.6511V27.8426H24.8327V25.5643L24.7795 25.3001L24.8603 17.912V15.4492C24.8603 15.4492 22.4461 15.529 22.4714 15.4492H22.4741Z" fill="#090C21"/>
<path d="M26.362 15.3172L26.2812 19.3153V26.6237L26.3091 27.8675H27.5162L28.188 27.9722H30.2815V26.8331L30.2536 25.8535C30.2536 25.8535 30.3597 25.6416 30.2536 25.6416H28.8042L28.751 25.4297L28.9936 15.3147H28.0011L27.6247 15.2873L26.3647 15.3147L26.362 15.3172Z" fill="#090C21"/>
<path d="M31.1376 15.3421L31.0315 19.4998L31.0039 19.8712L31.0315 27.87L32.9104 27.9747H35.0039C35.0039 27.9747 35.0848 25.6441 34.976 25.6441C34.8675 25.6441 33.4205 25.6167 33.4205 25.6167L33.327 25.4447L33.5822 20.8757L33.716 15.3147H32.7234L32.3471 15.2873L31.14 15.3396L31.1376 15.3421Z" fill="#090C21"/>
<path d="M41.8458 21.2222L41.6588 20.1903L40.9747 15.3097H37.381L37.045 18.2585L36.7495 20.0058L36.0528 24.5872L35.5956 27.8451L38.0982 27.8501L38.424 26.4143L38.4745 25.6092L40.4241 25.5893L40.7171 27.8177H43L42.3838 23.8719L41.8485 21.2247L41.8458 21.2222ZM38.2776 22.9695L38.4391 20.1878L38.7877 17.6453H39.3507L39.727 21.3269L39.8331 22.9421L38.2776 22.9695Z" fill="#090C21"/>
<path d="M9.754 0L9.27164 4.68862L9.23124 7.41554L8.87013 7.65482L7.7842 5.86762L7.73623 8.54221L6.74123 8.14836L7.40289 11.0149L6.80438 11.1046L7.63016 13.3255L10.4156 13.1536L17.3729 12.2014L25.1612 12.0518L31.2548 13.323L34.5632 13.4452L35.0658 11.5857L34.5909 11.4511L35.611 8.18826L34.6819 8.58208L34.7451 5.98726L32.9747 9.00583L33.2172 5.40401L33.0228 0.640603L27.7446 7.21863L26.3758 4.08043L23.8002 7.13887L21.0625 4.08043C21.0625 4.08043 18.7291 7.57508 18.6886 7.41804C18.6483 7.2585 15.8325 4.47924 15.8325 4.47924L14.3831 7.18123L9.754 0Z" fill="#090C21"/>
</svg>

<svg xmlns="http://www.w3.org/2000/svg" width="43" height="28" fill="none"><path fill="#090C21" d="M6.321 19.727H4.106l-.01-2.157H2.053v6.33l.187 1.794h2.018l.01-2.47h-.965v-1.947h2.495l.685.436.141 6.19-.583.047-1.167-.028-.283-.628-1.247.696-2.14-.03-1.116-1.207L0 17.411l.46-1.231.954-.708 3.877-.028.848 1.05.258 1.802s-.081 1.628-.081 1.43zm6.861-3.258-.881-1.075H8.9l-1.032.975-.341.476-.141 1.232-.162 2.938v2.96l.121 2.045.462.616.665.755s.664.776 2.495.576c1.085-.12 1.79-.755 1.79-.755l.765-1.47.142-4.131v-3.614l-.483-1.53zm-1.75 8.203-.058 1.204-1.806.052-.186-.72V23.26l.06-3.397.053-2.306 2.066-.017-.126 7.128zm9.599 2.542V23.54l-.361-1.111-.624-.536v-.26l.887-1.313-.15-3.839-1.393-1.06-3.208.013-1.368.08v2.642l-.182.22.04 9.534h2.415v-1.967l.08-1.231-.04-1.668h.826l.36.26.163.595v3.178l.222.815 2.462-.02-.126-.655zm-2.447-7.727-.131.953-.394.356h-1.253v-2.682l.03-.835 1.672.02.076 2.186zm3.89-4.037-.08 1.243-.215.132v1.855l.053 4.078v3.47l.052.423v1.192h2.549v-2.279l-.053-.264.08-7.388v-2.463s-2.414.08-2.389 0zm3.888-.133-.08 3.998v7.309l.027 1.244h1.207l.672.104h2.094v-1.139l-.028-.98s.106-.211 0-.211h-1.45l-.053-.212.243-10.115H28l-.376-.028-1.26.028zm4.776.025L31.03 19.5l-.027.371.027 7.999 1.88.105h2.093s.08-2.33-.028-2.33-1.556-.028-1.556-.028l-.093-.172.255-4.57.134-5.56h-.993l-.376-.028-1.207.053zm10.708 5.88-.187-1.032-.684-4.88H37.38l-.336 2.949-.296 1.747-.696 4.581-.457 3.258 2.502.005.326-1.436.05-.805 1.95-.02.293 2.229H43l-.616-3.946-.535-2.647zm-3.568 1.747.161-2.781.349-2.543h.563l.376 3.682.106 1.615zM9.754 0l-.482 4.689-.04 2.727-.362.239-1.086-1.787-.048 2.674-.995-.394.662 2.867-.599.09.826 2.22 2.786-.171 6.957-.953 7.788-.15 6.094 1.272 3.308.122.503-1.86-.475-.134 1.02-3.263-.93.394.064-2.595-1.77 3.019.242-3.602-.194-4.763-5.278 6.578-1.37-3.139L23.8 7.14l-2.738-3.06S18.73 7.575 18.69 7.418c-.04-.16-2.857-2.939-2.857-2.939l-1.449 2.702z"/></svg>
